public/images/Logo-contact.svg

<svg width="297" height="60" viewBox="0 0 297 60" fill="none" xmlns="http://www.w3.org/2000/svg">
<g clip-path="url(#clip0_61676_2044)">
<path d="M4.95672 0H0V35.7986H4.95672V22.5177C4.95672 20.2709 5.51557 18.4984 6.63326 17.2502C7.75095 16.002 9.2817 15.353 11.1769 15.353C12.8049 15.353 14.1655 15.9521 15.2589 17.1004C16.3523 18.2738 16.9112 19.7466 16.9112 21.5191V35.8236H21.8922V21.5191C21.8922 18.2238 20.9932 15.6276 19.1951 13.6804C17.3971 11.7332 15.0402 10.7596 12.1731 10.7596C11.347 10.7596 10.5209 10.8594 9.71906 11.0841C8.89294 11.3088 8.2369 11.5584 7.70235 11.833C7.16781 12.1076 6.65756 12.4072 6.1959 12.7567C5.73424 13.1062 5.41838 13.3558 5.27259 13.5056C5.1268 13.6554 5.00532 13.7552 4.95672 13.8301V0Z" fill="#F0145A"/>
<path d="M32.9726 0H27.8628V35.7689H32.9726V0Z" fill="#323264"/>
<path d="M63.1114 25.293L63.3669 22.7381C63.3669 19.3145 62.2428 16.453 59.9433 14.1536C57.6439 11.8541 54.7824 10.73 51.3588 10.73C47.9352 10.73 44.9715 11.9563 42.5188 14.4091C40.0661 16.8618 38.8397 19.7744 38.8397 23.2491C38.8397 26.826 40.1172 29.8919 42.621 32.4468C45.1248 35.0017 48.1396 36.2792 51.6143 36.2792C52.9429 36.2792 54.1692 36.0748 55.3956 35.7171C56.6219 35.3083 57.6439 34.8995 58.3593 34.4907C59.1258 34.0308 59.8922 33.5199 60.5565 32.9578C61.2208 32.3957 61.6807 31.9869 61.8851 31.7314C62.0895 31.4759 62.2428 31.3226 62.345 31.1693L59.0236 27.8479L58.2571 28.8188C57.7461 29.432 56.8774 30.0452 55.6511 30.7095C54.3736 31.3737 53.0451 31.6803 51.6143 31.6803C49.6215 31.6803 47.9352 31.0671 46.5045 29.7897C45.0737 28.5122 44.205 27.0304 43.9495 25.293H63.1114ZM51.3588 15.0733C53.2494 15.0733 54.7824 15.6354 56.0599 16.7085C57.2862 17.8327 58.0527 19.2123 58.3593 20.9497H44.1539C44.6138 19.2123 45.4314 17.8327 46.7089 16.7085C47.9352 15.6354 49.5193 15.0733 51.3588 15.0733Z" fill="#323264"/>
<path d="M86.9429 34.2863C86.9429 36.5347 86.2786 38.3742 84.8989 39.805C83.5704 41.1846 81.8841 41.9 79.7891 41.9C78.8693 41.9 77.9496 41.7467 77.0809 41.4912C76.2122 41.2357 75.5479 40.9291 74.9859 40.5714C74.4238 40.2137 73.9128 39.856 73.4018 39.3962C72.9419 38.9363 72.6353 38.6297 72.482 38.4764C72.3287 38.3231 72.2265 38.1698 72.1244 38.0676L68.803 41.389L69.2117 41.9C69.4672 42.2577 69.9271 42.7176 70.5403 43.2285C71.1535 43.6884 71.8689 44.1994 72.6864 44.7104C73.504 45.1703 74.526 45.5791 75.8034 45.9368C77.0809 46.2944 78.4094 46.4988 79.7891 46.4988C83.2638 46.4988 86.1253 45.3236 88.5269 42.9731C90.8774 40.5714 92.0527 37.7099 92.0527 34.2352V11.241H86.9429V13.7959L86.0742 13.0294C85.5121 12.5184 84.6434 12.0074 83.4171 11.4965C82.1907 10.9855 80.8622 10.73 79.5336 10.73C76.4166 10.73 73.7595 11.9052 71.4601 14.3069C69.1606 16.7085 68.0365 19.57 68.0365 22.9936C68.0365 26.4172 69.1606 29.2787 71.4601 31.6803C73.7595 34.0819 76.4166 35.2572 79.5336 35.2572C80.4023 35.2572 81.2199 35.155 82.0885 34.9506C82.9061 34.6951 83.5704 34.4396 84.1325 34.1841C84.6945 33.9286 85.2055 33.622 85.6654 33.2644C86.1253 32.9067 86.483 32.6512 86.5852 32.549L86.9429 32.1913V34.2863ZM73.1463 22.9936C73.1463 20.8475 73.8106 19.059 75.1903 17.5772C76.5699 16.0953 78.2051 15.3288 80.0446 15.3288C81.8841 15.3288 83.5193 16.0953 84.8989 17.5772C86.2275 19.059 86.9429 20.8475 86.9429 22.9936C86.9429 25.1397 86.2275 26.9282 84.8989 28.41C83.5193 29.8919 81.8841 30.6583 80.0446 30.6583C78.2051 30.6583 76.5699 29.8919 75.1903 28.41C73.8106 26.9282 73.1463 25.1397 73.1463 22.9936Z" fill="#323264"/>
<path d="M118.724 35.7682V19.9277C118.724 17.3217 117.753 15.1244 115.863 13.3871C113.972 11.5987 111.519 10.73 108.504 10.73C107.329 10.73 106.154 10.8833 105.03 11.1899C103.906 11.5476 102.986 11.9052 102.321 12.314C101.657 12.7228 100.993 13.1827 100.38 13.7448C99.7666 14.2558 99.4089 14.6135 99.2045 14.8179C99.0512 15.0222 98.8979 15.1755 98.7957 15.3288L102.117 18.6502L102.781 17.7816C103.19 17.2195 103.906 16.7085 104.979 16.1464C106.052 15.5843 107.227 15.3288 108.504 15.3288C109.986 15.3288 111.213 15.7887 112.183 16.6574C113.154 17.5261 113.614 18.6502 113.614 19.9277L104.672 21.4606C102.475 21.8183 100.686 22.687 99.46 24.0667C98.1825 25.4463 97.5182 27.1326 97.5182 29.1254C97.5182 31.016 98.3358 32.6512 99.971 34.0819C101.657 35.5638 103.701 36.2792 106.205 36.2792C107.074 36.2792 107.891 36.177 108.709 35.9215C109.577 35.7171 110.242 35.4616 110.804 35.2061C111.366 34.9506 111.877 34.644 112.337 34.2863C112.797 33.9287 113.103 33.6732 113.308 33.571C113.461 33.4177 113.563 33.2644 113.614 33.2133V35.7682H118.724ZM106.971 31.6803C105.643 31.6803 104.57 31.3737 103.803 30.7606C102.986 30.1474 102.628 29.432 102.628 28.6144C102.628 27.7457 102.884 26.9793 103.446 26.4172C104.008 25.8551 104.774 25.4463 105.694 25.293L113.614 24.0156V24.5265C113.614 26.826 113.052 28.5633 111.877 29.8408C110.702 31.0671 109.066 31.6803 106.971 31.6803Z" fill="#323264"/>
<path d="M130 0H124.89V35.7689H130V0Z" fill="#323264"/>
<path d="M0 53.1185H1.59915V58.7253H5.06396V60.0283H0V53.1185Z" fill="#323264"/>
<path d="M15.5016 58.5477H12.2934L11.6814 60.0283H10.0428L13.1226 53.1185H14.702L17.7917 60.0283H16.1136L15.5016 58.5477ZM14.9982 57.3335L13.9025 54.688L12.8067 57.3335H14.9982Z" fill="#323264"/>
<path d="M33.5121 53.1185L31.2516 60.0283H29.534L28.0138 55.3494L26.4443 60.0283H24.7366L22.4662 53.1185H24.1245L25.6842 57.9751L27.313 53.1185H28.7937L30.3731 58.0146L31.9821 53.1185H33.5121Z" fill="#323264"/>
<path d="M50.5232 60.1468C49.819 60.1468 49.1807 59.9954 48.6082 59.6927C48.0422 59.3834 47.5947 58.959 47.2657 58.4193C46.9432 57.8731 46.782 57.2578 46.782 56.5734C46.782 55.889 46.9432 55.277 47.2657 54.7373C47.5947 54.1911 48.0422 53.7667 48.6082 53.464C49.1807 53.1547 49.8223 53 50.5331 53C51.1319 53 51.6716 53.1053 52.152 53.3159C52.6389 53.5265 53.047 53.8292 53.376 54.224L52.3494 55.1717C51.8821 54.6321 51.303 54.3622 50.612 54.3622C50.1843 54.3622 49.8026 54.4577 49.467 54.6485C49.1313 54.8328 48.8681 55.0927 48.6773 55.4283C48.493 55.764 48.4009 56.1456 48.4009 56.5734C48.4009 57.0012 48.493 57.3828 48.6773 57.7185C48.8681 58.0541 49.1313 58.3173 49.467 58.5082C49.8026 58.6924 50.1843 58.7846 50.612 58.7846C51.303 58.7846 51.8821 58.5115 52.3494 57.9653L53.376 58.9129C53.047 59.3143 52.6389 59.6203 52.152 59.8309C51.665 60.0415 51.1221 60.1468 50.5232 60.1468Z" fill="#323264"/>
<path d="M62.5933 60.1468C61.876 60.1468 61.2278 59.9922 60.6487 59.6829C60.0761 59.3736 59.6253 58.9491 59.2963 58.4095C58.9738 57.8632 58.8126 57.2512 58.8126 56.5734C58.8126 55.8956 58.9738 55.2868 59.2963 54.7472C59.6253 54.201 60.0761 53.7733 60.6487 53.464C61.2278 53.1547 61.876 53 62.5933 53C63.3106 53 63.9555 53.1547 64.5281 53.464C65.1006 53.7733 65.5514 54.201 65.8804 54.7472C66.2095 55.2868 66.374 55.8956 66.374 56.5734C66.374 57.2512 66.2095 57.8632 65.8804 58.4095C65.5514 58.9491 65.1006 59.3736 64.5281 59.6829C63.9555 59.9922 63.3106 60.1468 62.5933 60.1468ZM62.5933 58.7846C63.0013 58.7846 63.3698 58.6924 63.6989 58.5082C64.0279 58.3173 64.2846 58.0541 64.4688 57.7185C64.6597 57.3828 64.7551 57.0012 64.7551 56.5734C64.7551 56.1456 64.6597 55.764 64.4688 55.4283C64.2846 55.0927 64.0279 54.8328 63.6989 54.6485C63.3698 54.4577 63.0013 54.3622 62.5933 54.3622C62.1853 54.3622 61.8168 54.4577 61.4877 54.6485C61.1587 54.8328 60.8987 55.0927 60.7079 55.4283C60.5236 55.764 60.4315 56.1456 60.4315 56.5734C60.4315 57.0012 60.5236 57.3828 60.7079 57.7185C60.8987 58.0541 61.1587 58.3173 61.4877 58.5082C61.8168 58.6924 62.1853 58.7846 62.5933 58.7846Z" fill="#323264"/>
<path d="M78.7995 60.0283L78.7896 55.8824L76.7561 59.2979H76.0355L74.0119 55.9713V60.0283H72.5115V53.1185H73.8342L76.4205 57.4125L78.9673 53.1185H80.2802L80.2999 60.0283H78.7995Z" fill="#323264"/>
<path d="M89.8659 53.1185C90.478 53.1185 91.0077 53.2205 91.4552 53.4245C91.9093 53.6285 92.2581 53.918 92.5016 54.2931C92.7451 54.6682 92.8668 55.1125 92.8668 55.6258C92.8668 56.1325 92.7451 56.5767 92.5016 56.9584C92.2581 57.3335 91.9093 57.623 91.4552 57.8271C91.0077 58.0245 90.478 58.1232 89.8659 58.1232H88.4741V60.0283H86.8749V53.1185H89.8659ZM89.7771 56.8202C90.2575 56.8202 90.6227 56.7182 90.8728 56.5142C91.1229 56.3036 91.2479 56.0074 91.2479 55.6258C91.2479 55.2375 91.1229 54.9414 90.8728 54.7373C90.6227 54.5268 90.2575 54.4215 89.7771 54.4215H88.4741V56.8202H89.7771Z" fill="#323264"/>
<path d="M103.148 58.5477H99.9396L99.3276 60.0283H97.6889L100.769 53.1185H102.348L105.438 60.0283H103.76L103.148 58.5477ZM102.644 57.3335L101.549 54.688L100.453 57.3335H102.644Z" fill="#323264"/>
<path d="M117.428 53.1185V60.0283H116.115L112.67 55.8331V60.0283H111.09V53.1185H112.413L115.848 57.3137V53.1185H117.428Z" fill="#323264"/>
<path d="M127.315 57.5803V60.0283H125.716V57.5605L123.041 53.1185H124.739L126.585 56.1884L128.43 53.1185H130L127.315 57.5803Z" fill="#323264"/>
<path fill-rule="evenodd" clip-rule="evenodd" d="M149.175 0H155L139.825 47H134L149.175 0Z" fill="#F0145A"/>
<path d="M170.412 35.18C168.54 35.18 166.86 34.772 165.372 33.956C163.908 33.14 162.756 32 161.916 30.536C161.076 29.048 160.656 27.38 160.656 25.532C160.656 23.684 161.076 22.028 161.916 20.564C162.756 19.1 163.908 17.96 165.372 17.144C166.86 16.328 168.54 15.92 170.412 15.92C172.044 15.92 173.496 16.244 174.768 16.892C176.064 17.516 177.084 18.44 177.828 19.664L175.92 20.96C175.296 20.024 174.504 19.328 173.544 18.872C172.584 18.392 171.54 18.152 170.412 18.152C169.044 18.152 167.808 18.464 166.704 19.088C165.624 19.688 164.772 20.552 164.148 21.68C163.548 22.808 163.248 24.092 163.248 25.532C163.248 26.996 163.548 28.292 164.148 29.42C164.772 30.524 165.624 31.388 166.704 32.012C167.808 32.612 169.044 32.912 170.412 32.912C171.54 32.912 172.584 32.684 173.544 32.228C174.504 31.772 175.296 31.076 175.92 30.14L177.828 31.436C177.084 32.66 176.064 33.596 174.768 34.244C173.472 34.868 172.02 35.18 170.412 35.18ZM190.273 35.18C188.449 35.18 186.805 34.772 185.341 33.956C183.877 33.116 182.725 31.964 181.885 30.5C181.045 29.036 180.625 27.38 180.625 25.532C180.625 23.684 181.045 22.028 181.885 20.564C182.725 19.1 183.877 17.96 185.341 17.144C186.805 16.328 188.449 15.92 190.273 15.92C192.097 15.92 193.741 16.328 195.205 17.144C196.669 17.96 197.809 19.1 198.625 20.564C199.465 22.028 199.885 23.684 199.885 25.532C199.885 27.38 199.465 29.036 198.625 30.5C197.809 31.964 196.669 33.116 195.205 33.956C193.741 34.772 192.097 35.18 190.273 35.18ZM190.273 32.912C191.617 32.912 192.817 32.612 193.873 32.012C194.953 31.388 195.793 30.512 196.393 29.384C196.993 28.256 197.293 26.972 197.293 25.532C197.293 24.092 196.993 22.808 196.393 21.68C195.793 20.552 194.953 19.688 193.873 19.088C192.817 18.464 191.617 18.152 190.273 18.152C188.929 18.152 187.717 18.464 186.637 19.088C185.581 19.688 184.741 20.552 184.117 21.68C183.517 22.808 183.217 24.092 183.217 25.532C183.217 26.972 183.517 28.256 184.117 29.384C184.741 30.512 185.581 31.388 186.637 32.012C187.717 32.612 188.929 32.912 190.273 32.912ZM214.751 15.92C217.127 15.92 219.011 16.616 220.403 18.008C221.819 19.376 222.527 21.38 222.527 24.02V35H219.971V24.272C219.971 22.304 219.479 20.804 218.495 19.772C217.511 18.74 216.107 18.224 214.283 18.224C212.243 18.224 210.623 18.836 209.423 20.06C208.247 21.26 207.659 22.928 207.659 25.064V35H205.103V16.064H207.551V19.556C208.247 18.404 209.207 17.516 210.431 16.892C211.679 16.244 213.119 15.92 214.751 15.92ZM239.438 33.848C238.958 34.28 238.358 34.616 237.638 34.856C236.942 35.072 236.21 35.18 235.442 35.18C233.666 35.18 232.298 34.7 231.338 33.74C230.378 32.78 229.898 31.424 229.898 29.672V18.224H226.514V16.064H229.898V11.924H232.454V16.064H238.214V18.224H232.454V29.528C232.454 30.656 232.73 31.52 233.282 32.12C233.858 32.696 234.674 32.984 235.73 32.984C236.258 32.984 236.762 32.9 237.242 32.732C237.746 32.564 238.178 32.324 238.538 32.012L239.438 33.848ZM250.715 15.92C253.187 15.92 255.083 16.544 256.403 17.792C257.723 19.016 258.383 20.84 258.383 23.264V35H255.935V32.048C255.359 33.032 254.507 33.8 253.379 34.352C252.275 34.904 250.955 35.18 249.419 35.18C247.307 35.18 245.627 34.676 244.379 33.668C243.131 32.66 242.507 31.328 242.507 29.672C242.507 28.064 243.083 26.768 244.235 25.784C245.411 24.8 247.271 24.308 249.815 24.308H255.827V23.156C255.827 21.524 255.371 20.288 254.459 19.448C253.547 18.584 252.215 18.152 250.463 18.152C249.263 18.152 248.111 18.356 247.007 18.764C245.903 19.148 244.955 19.688 244.163 20.384L243.011 18.476C243.971 17.66 245.123 17.036 246.467 16.604C247.811 16.148 249.227 15.92 250.715 15.92ZM249.815 33.164C251.255 33.164 252.491 32.84 253.523 32.192C254.555 31.52 255.323 30.56 255.827 29.312V26.216H249.887C246.647 26.216 245.027 27.344 245.027 29.6C245.027 30.704 245.447 31.58 246.287 32.228C247.127 32.852 248.303 33.164 249.815 33.164ZM273.244 35.18C271.372 35.18 269.692 34.772 268.204 33.956C266.74 33.14 265.588 32 264.748 30.536C263.908 29.048 263.488 27.38 263.488 25.532C263.488 23.684 263.908 22.028 264.748 20.564C265.588 19.1 266.74 17.96 268.204 17.144C269.692 16.328 271.372 15.92 273.244 15.92C274.876 15.92 276.328 16.244 277.6 16.892C278.896 17.516 279.916 18.44 280.66 19.664L278.752 20.96C278.128 20.024 277.336 19.328 276.376 18.872C275.416 18.392 274.372 18.152 273.244 18.152C271.876 18.152 270.64 18.464 269.536 19.088C268.456 19.688 267.604 20.552 266.98 21.68C266.38 22.808 266.08 24.092 266.08 25.532C266.08 26.996 266.38 28.292 266.98 29.42C267.604 30.524 268.456 31.388 269.536 32.012C270.64 32.612 271.876 32.912 273.244 32.912C274.372 32.912 275.416 32.684 276.376 32.228C277.336 31.772 278.128 31.076 278.752 30.14L280.66 31.436C279.916 32.66 278.896 33.596 277.6 34.244C276.304 34.868 274.852 35.18 273.244 35.18ZM295.864 33.848C295.384 34.28 294.784 34.616 294.064 34.856C293.368 35.072 292.636 35.18 291.868 35.18C290.092 35.18 288.724 34.7 287.764 33.74C286.804 32.78 286.324 31.424 286.324 29.672V18.224H282.94V16.064H286.324V11.924H288.88V16.064H294.64V18.224H288.88V29.528C288.88 30.656 289.156 31.52 289.708 32.12C290.284 32.696 291.1 32.984 292.156 32.984C292.684 32.984 293.188 32.9 293.668 32.732C294.172 32.564 294.604 32.324 294.964 32.012L295.864 33.848Z" fill="#323264"/>
</g>
<defs>
<clipPath id="clip0_61676_2044">
<rect width="297" height="60" fill="white"/>
</clipPath>
</defs>
</svg>

<svg width="297" height="60" fill="none" xmlns="http://www.w3.org/2000/svg"><g clip-path="url(#clip0_61676_2044)"><path d="M4.957 0H0v35.799h4.957V22.518c0-2.247.559-4.02 1.676-5.268 1.118-1.248 2.649-1.897 4.544-1.897 1.628 0 2.989.6 4.082 1.747 1.093 1.174 1.652 2.647 1.652 4.42v14.304h4.981V21.519c0-3.295-.899-5.891-2.697-7.839-1.798-1.947-4.155-2.92-7.022-2.92-.826 0-1.652.1-2.454.324-.826.225-1.482.474-2.017.749-.534.275-1.044.574-1.506.924-.462.35-.778.599-.923.749-.146.15-.268.25-.316.324V0z" fill="#F0145A"/><path d="M32.973 0h-5.11v35.769h5.11V0zm30.138 25.293l.256-2.555c0-3.424-1.124-6.285-3.424-8.584-2.3-2.3-5.16-3.424-8.584-3.424-3.424 0-6.388 1.226-8.84 3.68-2.453 2.452-3.68 5.364-3.68 8.84 0 3.576 1.278 6.642 3.782 9.197 2.504 2.555 5.519 3.832 8.993 3.832 1.329 0 2.555-.204 3.782-.562 1.226-.409 2.248-.817 2.963-1.226.767-.46 1.533-.971 2.197-1.533.665-.562 1.125-.971 1.33-1.227.203-.255.357-.408.459-.562l-3.321-3.321-.767.97c-.51.614-1.38 1.227-2.606 1.891-1.277.665-2.606.971-4.037.971-1.992 0-3.679-.613-5.11-1.89-1.43-1.278-2.299-2.76-2.554-4.497h19.16zM51.36 15.073c1.89 0 3.423.562 4.7 1.636 1.227 1.124 1.994 2.503 2.3 4.24H44.154c.46-1.737 1.277-3.116 2.555-4.24 1.226-1.074 2.81-1.636 4.65-1.636zm35.583 19.213c0 2.249-.664 4.088-2.044 5.519-1.329 1.38-3.015 2.095-5.11 2.095-.92 0-1.84-.153-2.708-.409-.869-.255-1.533-.562-2.095-.92a11.553 11.553 0 01-1.584-1.175l-.92-.92c-.153-.153-.255-.306-.358-.408l-3.321 3.321.409.511c.255.358.715.818 1.328 1.328.613.46 1.329.971 2.146 1.482.818.46 1.84.87 3.117 1.227 1.278.357 2.606.562 3.986.562 3.475 0 6.336-1.175 8.738-3.526 2.35-2.402 3.526-5.263 3.526-8.738V11.241h-5.11v2.555l-.869-.767c-.562-.51-1.43-1.022-2.657-1.533a10.12 10.12 0 00-3.883-.766c-3.117 0-5.775 1.175-8.074 3.577-2.3 2.402-3.423 5.263-3.423 8.687 0 3.423 1.124 6.285 3.423 8.686 2.3 2.402 4.957 3.577 8.074 3.577.868 0 1.686-.102 2.554-.306a17.604 17.604 0 002.044-.767 7.629 7.629 0 001.533-.92c.46-.357.818-.613.92-.715l.358-.358v2.095zM73.146 22.994c0-2.146.665-3.935 2.044-5.417 1.38-1.482 3.015-2.248 4.855-2.248 1.84 0 3.474.766 4.854 2.248 1.329 1.482 2.044 3.27 2.044 5.417 0 2.146-.715 3.934-2.044 5.416-1.38 1.482-3.015 2.248-4.854 2.248-1.84 0-3.475-.766-4.855-2.248-1.38-1.482-2.044-3.27-2.044-5.416zm45.578 12.774v-15.84c0-2.606-.971-4.804-2.861-6.54-1.891-1.79-4.344-2.658-7.359-2.658-1.175 0-2.35.153-3.474.46-1.124.358-2.044.715-2.709 1.124-.664.409-1.328.869-1.941 1.43-.613.512-.971.87-1.175 1.074-.154.204-.307.357-.41.51l3.322 3.322.664-.868c.409-.563 1.125-1.073 2.198-1.636 1.073-.562 2.248-.817 3.525-.817 1.482 0 2.709.46 3.679 1.328.971.87 1.431 1.993 1.431 3.27l-8.942 1.534c-2.197.357-3.986 1.226-5.212 2.606-1.277 1.38-1.942 3.066-1.942 5.058 0 1.891.818 3.526 2.453 4.957 1.686 1.482 3.73 2.197 6.234 2.197.869 0 1.686-.102 2.504-.358.868-.204 1.533-.46 2.095-.715a7.628 7.628 0 001.533-.92c.46-.357.766-.613.971-.715.153-.153.255-.307.306-.358v2.555h5.11zm-11.753-4.088c-1.328 0-2.401-.306-3.168-.92-.817-.613-1.175-1.328-1.175-2.146 0-.868.256-1.635.818-2.197.562-.562 1.328-.97 2.248-1.124l7.92-1.277v.51c0 2.3-.562 4.037-1.737 5.315-1.175 1.226-2.811 1.84-4.906 1.84zM130 0h-5.11v35.769H130V0zM0 53.118h1.6v5.607h3.464v1.303H0v-6.91zm15.502 5.43h-3.209l-.612 1.48h-1.638l3.08-6.91h1.579l3.09 6.91h-1.678l-.612-1.48zm-.504-1.215l-1.095-2.645-1.096 2.645h2.191zm18.514-4.215l-2.26 6.91h-1.718l-1.52-4.679-1.57 4.68h-1.707l-2.27-6.91h1.658l1.56 4.856 1.628-4.857h1.48l1.58 4.897 1.61-4.897h1.53zm17.011 7.029a4.033 4.033 0 01-1.915-.454 3.518 3.518 0 01-1.342-1.274 3.562 3.562 0 01-.484-1.846c0-.684.161-1.296.484-1.836.329-.546.776-.97 1.342-1.273.573-.31 1.214-.464 1.925-.464.599 0 1.139.105 1.619.316.487.21.895.513 1.224.908l-1.027.948c-.467-.54-1.046-.81-1.737-.81-.428 0-.81.096-1.145.286a2 2 0 00-.79.78 2.34 2.34 0 00-.276 1.145c0 .428.092.81.276 1.145.191.336.454.6.79.79a2.34 2.34 0 001.145.277c.691 0 1.27-.273 1.737-.82l1.027.948a3.2 3.2 0 01-1.224.918c-.487.21-1.03.316-1.629.316zm12.07 0a4.064 4.064 0 01-1.944-.464 3.5 3.5 0 01-1.353-1.273 3.543 3.543 0 01-.483-1.837c0-.677.16-1.286.483-1.826a3.48 3.48 0 011.353-1.283c.579-.31 1.227-.464 1.944-.464.718 0 1.362.155 1.935.464a3.476 3.476 0 011.846 3.11c0 .677-.164 1.29-.494 1.836a3.5 3.5 0 01-1.352 1.273c-.573.31-1.217.464-1.935.464zm0-1.362c.408 0 .777-.093 1.106-.277a2.02 2.02 0 00.77-.79c.19-.335.286-.717.286-1.145 0-.427-.095-.809-.286-1.145a1.951 1.951 0 00-.77-.78 2.164 2.164 0 00-1.106-.286c-.408 0-.776.096-1.105.286a2.019 2.019 0 00-.78.78 2.34 2.34 0 00-.276 1.145c0 .428.092.81.276 1.145.19.336.45.6.78.79.329.184.697.277 1.105.277zM78.8 60.028l-.01-4.146-2.034 3.416h-.72l-2.024-3.327v4.057h-1.5v-6.91h1.322l2.587 4.294 2.546-4.294h1.313l.02 6.91h-1.5zm11.066-6.91c.612 0 1.142.102 1.59.306.453.205.802.494 1.046.87.243.374.365.819.365 1.332 0 .507-.122.95-.365 1.332-.244.376-.593.665-1.047.87-.447.197-.977.295-1.59.295h-1.39v1.905h-1.6v-6.91h2.99zm-.089 3.702c.48 0 .846-.102 1.096-.306.25-.21.375-.507.375-.888 0-.389-.125-.685-.375-.889-.25-.21-.616-.316-1.096-.316h-1.303v2.4h1.303zm13.371 1.728H99.94l-.612 1.48h-1.64l3.081-6.91h1.579l3.09 6.91h-1.678l-.612-1.48zm-.504-1.215l-1.095-2.645-1.096 2.645h2.191zm14.784-4.215v6.91h-1.313l-3.445-4.195v4.195h-1.58v-6.91h1.323l3.435 4.196v-4.196h1.58zm9.887 4.462v2.448h-1.599V57.56l-2.675-4.442h1.698l1.846 3.07 1.845-3.07H130l-2.685 4.462z" fill="#323264"/><path fill-rule="evenodd" clip-rule="evenodd" d="M149.175 0H155l-15.175 47H134l15.175-47z" fill="#F0145A"/><path d="M170.412 35.18c-1.872 0-3.552-.408-5.04-1.224a8.929 8.929 0 01-3.456-3.42c-.84-1.488-1.26-3.156-1.26-5.004 0-1.848.42-3.504 1.26-4.968a8.929 8.929 0 013.456-3.42c1.488-.816 3.168-1.224 5.04-1.224 1.632 0 3.084.324 4.356.972a7.123 7.123 0 013.06 2.772l-1.908 1.296c-.624-.936-1.416-1.632-2.376-2.088a6.905 6.905 0 00-3.132-.72c-1.368 0-2.604.312-3.708.936-1.08.6-1.932 1.464-2.556 2.592-.6 1.128-.9 2.412-.9 3.852 0 1.464.3 2.76.9 3.888a6.8 6.8 0 002.556 2.592c1.104.6 2.34.9 3.708.9 1.128 0 2.172-.228 3.132-.684.96-.456 1.752-1.152 2.376-2.088l1.908 1.296a7.358 7.358 0 01-3.06 2.808c-1.296.624-2.748.936-4.356.936zm19.861 0c-1.824 0-3.468-.408-4.932-1.224a9.189 9.189 0 01-3.456-3.456c-.84-1.464-1.26-3.12-1.26-4.968 0-1.848.42-3.504 1.26-4.968a8.929 8.929 0 013.456-3.42c1.464-.816 3.108-1.224 4.932-1.224 1.824 0 3.468.408 4.932 1.224a8.68 8.68 0 013.42 3.42c.84 1.464 1.26 3.12 1.26 4.968 0 1.848-.42 3.504-1.26 4.968a8.929 8.929 0 01-3.42 3.456c-1.464.816-3.108 1.224-4.932 1.224zm0-2.268c1.344 0 2.544-.3 3.6-.9a6.486 6.486 0 002.52-2.628c.6-1.128.9-2.412.9-3.852s-.3-2.724-.9-3.852c-.6-1.128-1.44-1.992-2.52-2.592-1.056-.624-2.256-.936-3.6-.936-1.344 0-2.556.312-3.636.936-1.056.6-1.896 1.464-2.52 2.592-.6 1.128-.9 2.412-.9 3.852s.3 2.724.9 3.852c.624 1.128 1.464 2.004 2.52 2.628 1.08.6 2.292.9 3.636.9zm24.478-16.992c2.376 0 4.26.696 5.652 2.088 1.416 1.368 2.124 3.372 2.124 6.012V35h-2.556V24.272c0-1.968-.492-3.468-1.476-4.5s-2.388-1.548-4.212-1.548c-2.04 0-3.66.612-4.86 1.836-1.176 1.2-1.764 2.868-1.764 5.004V35h-2.556V16.064h2.448v3.492a7.016 7.016 0 012.88-2.664c1.248-.648 2.688-.972 4.32-.972zm24.687 17.928c-.48.432-1.08.768-1.8 1.008a7.367 7.367 0 01-2.196.324c-1.776 0-3.144-.48-4.104-1.44s-1.44-2.316-1.44-4.068V18.224h-3.384v-2.16h3.384v-4.14h2.556v4.14h5.76v2.16h-5.76v11.304c0 1.128.276 1.992.828 2.592.576.576 1.392.864 2.448.864.528 0 1.032-.084 1.512-.252a3.776 3.776 0 001.296-.72l.9 1.836zm11.277-17.928c2.472 0 4.368.624 5.688 1.872 1.32 1.224 1.98 3.048 1.98 5.472V35h-2.448v-2.952c-.576.984-1.428 1.752-2.556 2.304-1.104.552-2.424.828-3.96.828-2.112 0-3.792-.504-5.04-1.512-1.248-1.008-1.872-2.34-1.872-3.996 0-1.608.576-2.904 1.728-3.888 1.176-.984 3.036-1.476 5.58-1.476h6.012v-1.152c0-1.632-.456-2.868-1.368-3.708-.912-.864-2.244-1.296-3.996-1.296a9.89 9.89 0 00-3.456.612c-1.104.384-2.052.924-2.844 1.62l-1.152-1.908c.96-.816 2.112-1.44 3.456-1.872a13.131 13.131 0 014.248-.684zm-.9 17.244c1.44 0 2.676-.324 3.708-.972 1.032-.672 1.8-1.632 2.304-2.88v-3.096h-5.94c-3.24 0-4.86 1.128-4.86 3.384 0 1.104.42 1.98 1.26 2.628.84.624 2.016.936 3.528.936zm23.429 2.016c-1.872 0-3.552-.408-5.04-1.224a8.929 8.929 0 01-3.456-3.42c-.84-1.488-1.26-3.156-1.26-5.004 0-1.848.42-3.504 1.26-4.968a8.929 8.929 0 013.456-3.42c1.488-.816 3.168-1.224 5.04-1.224 1.632 0 3.084.324 4.356.972a7.123 7.123 0 013.06 2.772l-1.908 1.296c-.624-.936-1.416-1.632-2.376-2.088a6.905 6.905 0 00-3.132-.72c-1.368 0-2.604.312-3.708.936-1.08.6-1.932 1.464-2.556 2.592-.6 1.128-.9 2.412-.9 3.852 0 1.464.3 2.76.9 3.888a6.8 6.8 0 002.556 2.592c1.104.6 2.34.9 3.708.9 1.128 0 2.172-.228 3.132-.684.96-.456 1.752-1.152 2.376-2.088l1.908 1.296a7.358 7.358 0 01-3.06 2.808c-1.296.624-2.748.936-4.356.936zm22.62-1.332c-.48.432-1.08.768-1.8 1.008a7.367 7.367 0 01-2.196.324c-1.776 0-3.144-.48-4.104-1.44s-1.44-2.316-1.44-4.068V18.224h-3.384v-2.16h3.384v-4.14h2.556v4.14h5.76v2.16h-5.76v11.304c0 1.128.276 1.992.828 2.592.576.576 1.392.864 2.448.864.528 0 1.032-.084 1.512-.252a3.776 3.776 0 001.296-.72l.9 1.836z" fill="#323264"/></g><defs><clipPath id="clip0_61676_2044"><path fill="#fff" d="M0 0h297v60H0z"/></clipPath></defs></svg>
